X:4
T:Dogs Among The Bushes, The
T:Dog Among The Bushes
T:Dog Among The Bushes, The
T:Dogs Among The Bushes
T:Dogs Among The Rushes
T:Down Among The Bushes
M:4/4
L:1/8
R:reel
K:Gmaj
BG~G2 DG~G2|BG~G2 cedc|BG~G2 DGFG|AF~F2 fdcA|
BG~G2 DG~G2|BG~G2 c2cA|BG~G2 DGFG|AF~F2 fdcA||
dggf ~g3f|dg~g2 bgaf|dffe fgfe|df~f2 af~f2|
dggf ~g3f|dg~g2 bgag|bg~g2 aggf|d^cde fd=cA||
"version 2"
|:BG~G2 DG~G2|BG~G2 cedc|B2GB DGBd|AF~F2 fdcd|
BG~G2 DG~G2|BG~G2 cedc|B2Bc defd|1 cAeg fdcd:|2 cAeg fdcA||
|:dggf g2gf|dg~g2 bgaf|defe ~f3e|dfeg fdcA|
dggf ~g3f|dg~g2 bgag|bg~g2 agbg|1 d2eg fdcA:|2 d2eg fdcd||
W:Variation from errik
B3 A|:GE~E2 B,E~E2|GE~E2 AcBA|GE~E2 B,EGE|FDD2 dBAF|
GE~E2 B,E~E2|GE~E2 AcBA|GFGA BcdB|1AFDF A2 BA:|2AFDF A3 c||
|:Bee2 efed|Beef gefe|Bddc dedc|Bdde fdec|
Be/e/e/e efed|Beef gefe|ge/e/e/e ~B3 c|d2 dc dcBA:|
W:Variation from alec b
K:Gmix
|BG~G2 DG~G2|BGAB cedc|BG~G2 DGBG|AFAc fdcA|
BG~G2 DG~G2|BGAB cedc|BABc defd|cAFe fdcA:||
g3g2 agf|dgga bgaf|dffe fgfd|cdfg afgf|
dggf gagf|dgga bgag|bggf d3e|f2fe fdcA:||

